public/img/finanzierung.svg

<svg width="167" height="167" viewBox="0 0 167 167" fill="none" xmlns="http://www.w3.org/2000/svg">
<circle cx="83.5" cy="83.5" r="83.5" fill="#3BD4AE"/>
<path d="M9.00434 85.5806C8.39434 43.5806 74.3643 43.5806 73.7443 85.5806C74.3543 127.581 8.38434 127.581 9.00434 85.5806Z" fill="#121328"/>
<path d="M91.8242 85.5806C92.5542 43.0306 155.844 43.0406 156.564 85.5806C155.844 128.131 92.5442 128.131 91.8242 85.5806Z" fill="#121328"/>
<path d="M149.964 40.8406C149.074 43.9206 148.184 47.0006 147.304 50.0806C147.884 49.6906 148.464 49.3006 149.044 48.9106C145.594 48.4406 142.154 47.9606 138.704 47.4906C137.304 47.3006 135.954 49.8906 137.674 50.1206C141.124 50.5906 144.564 51.0706 148.014 51.5406C148.704 51.6406 149.564 51.0406 149.754 50.3706C150.644 47.2906 151.534 44.2106 152.414 41.1306C152.594 40.5106 152.474 39.7606 151.704 39.6606C151.014 39.5806 150.164 40.1706 149.964 40.8406Z" fill="black"/>
<path d="M15.3343 127.151C16.3843 124.041 17.4343 120.941 18.4843 117.831C18.6343 117.381 18.7843 116.941 18.9343 116.491C18.2543 116.851 17.5743 117.211 16.9043 117.571C19.7243 119.351 22.5443 121.121 25.3643 122.901C25.9843 123.291 26.8943 122.661 27.2243 122.151C27.6143 121.561 27.6143 120.831 26.9843 120.431C24.1643 118.651 21.3443 116.881 18.5243 115.101C17.7943 114.641 16.7043 115.541 16.4943 116.181C15.4443 119.291 14.3943 122.391 13.3443 125.501C13.1943 125.951 13.0443 126.391 12.8943 126.841C12.6843 127.461 12.8543 128.211 13.6043 128.311C14.3143 128.411 15.1043 127.811 15.3343 127.151Z" fill="black"/>
<path d="M18.6843 50.3806C23.1443 41.9006 28.2543 33.5406 35.2243 26.8806C38.6343 23.6206 42.6243 20.7906 46.8443 18.6806C51.7043 16.2506 56.9543 14.9306 62.2743 13.9606C68.2443 12.8706 74.2443 11.7006 80.3043 11.3306C85.9143 10.9906 91.5743 11.3406 97.1243 12.2806C107.884 14.1006 118.254 18.1206 127.024 24.6806C135.694 31.1606 143.624 40.2106 147.284 50.5306C147.794 51.9706 150.384 50.2606 149.754 48.9106C147.554 44.2206 145.184 39.7406 142.054 35.6006C138.994 31.5406 135.424 27.8606 131.474 24.6506C122.914 17.7206 112.674 13.0006 101.934 10.6406C90.0943 8.03061 78.0143 8.89061 66.1443 10.7506C60.2943 11.6606 54.3743 12.8006 48.9443 15.2206C44.4943 17.2106 40.3843 19.8706 36.7243 23.0906C28.3743 30.4306 21.8643 39.7806 18.0143 50.2106C17.8343 50.6706 18.4843 50.7506 18.6843 50.3806Z" fill="black"/>
<path d="M18.0044 118.55C21.3244 127.91 26.8544 136.5 34.0244 143.4C37.6244 146.86 41.4944 149.89 45.9344 152.21C50.8944 154.8 56.2444 156.19 61.7244 157.19C73.6144 159.36 85.8544 160.57 97.8544 158.58C108.814 156.77 119.494 152.41 128.454 145.82C133.094 142.42 137.254 138.43 140.854 133.95C144.544 129.36 147.314 124.32 149.744 118.99C150.534 117.25 147.844 117.18 147.304 118.69C143.964 127.88 137.244 136.04 129.754 142.18C121.504 148.94 111.624 153.4 101.214 155.61C95.7144 156.78 90.0944 157.39 84.4744 157.34C78.4944 157.29 72.5844 156.32 66.7144 155.25C61.1244 154.23 55.5144 153.29 50.2244 151.11C45.7844 149.28 41.7044 146.7 37.9744 143.69C29.6044 136.95 23.8344 127.37 18.7344 118.07C18.5044 117.63 17.8644 118.16 18.0044 118.55Z" fill="black"/>
<path d="M19.3345 85.5808C19.8245 56.6208 62.9045 56.6208 63.3945 85.5808C62.9045 114.541 19.8245 114.541 19.3345 85.5808Z" fill="white"/>
<path d="M102.164 85.5808C102.654 56.6208 145.734 56.6208 146.224 85.5808C145.734 114.541 102.654 114.541 102.164 85.5808Z" fill="white"/>
<path d="M132.844 77.0005C132.714 75.5805 130.154 74.8805 129.024 74.4905C127.534 73.9705 125.764 73.3905 124.174 73.7305C121.184 74.3705 119.884 77.5805 119.424 80.2705C118.794 83.9405 118.374 87.9505 118.724 91.6605C119.024 94.8705 120.654 97.8005 123.664 99.1805C126.964 100.69 131.114 99.6305 133.474 96.9205C134.644 95.5705 133.244 94.0905 131.934 95.3805C129.644 97.6305 126.104 97.8905 123.574 95.8405C120.644 93.4805 120.874 89.4505 121.054 86.0405C121.154 84.1505 121.354 82.2705 121.714 80.4005C121.954 79.1505 122.294 77.7005 123.164 76.7205C124.294 75.4505 126.384 76.0705 127.804 76.4205C128.694 76.6405 129.544 76.9405 130.404 77.2505C131.154 77.5205 131.744 77.7805 132.514 77.5105C132.704 77.4405 132.864 77.2105 132.844 77.0005Z" fill="black"/>
<path d="M115.584 91.1905C119.914 91.0605 124.244 91.1705 128.564 91.4905C129.304 91.5505 130.024 91.0205 130.284 90.3305C130.504 89.7505 130.324 88.9304 129.584 88.8704C125.044 88.5304 120.504 88.4405 115.954 88.5805C114.504 88.6205 113.724 91.2405 115.584 91.1905Z" fill="black"/>
<path d="M115.584 84.5606C119.914 84.4306 124.244 84.5406 128.564 84.8606C129.304 84.9206 130.024 84.3906 130.284 83.7006C130.504 83.1206 130.324 82.3006 129.584 82.2406C125.044 81.9006 120.504 81.8106 115.954 81.9506C114.504 82.0006 113.724 84.6206 115.584 84.5606Z" fill="black"/>
<path d="M33.2744 78.5405C32.3644 79.6905 31.5644 80.9005 30.6944 82.0805C29.7044 83.4305 28.2444 84.6505 27.3744 86.0305C26.9844 86.6505 26.7144 86.9105 26.9344 87.7005C27.3144 89.0105 29.8944 90.9605 30.8044 92.0405C31.8544 93.2805 32.6244 95.2005 34.4144 95.0005C34.7544 94.9605 35.1744 94.4405 34.8744 94.1305C33.8744 93.1105 33.1444 91.7305 32.2544 90.6005C31.5144 89.6605 28.7644 87.3005 28.9144 86.5105C29.1244 85.4705 31.4444 83.7705 32.1544 82.9205C33.1744 81.6805 34.0244 80.3905 34.7244 78.9505C35.2444 77.8605 33.7644 77.9305 33.2744 78.5405Z" fill="black"/>
<path d="M39.2644 94.2505C41.5144 92.3705 42.0044 89.7405 43.4344 87.3305C44.9944 84.7005 45.7644 81.9305 46.6944 79.0105C46.9744 78.1205 45.7844 78.1705 45.5344 78.8705C44.9844 80.4205 44.5444 82.0605 43.8644 83.5605C43.0644 85.3305 41.5344 86.5905 40.6244 88.3005C39.8944 89.6705 39.0344 91.0005 38.3144 92.3505C37.8844 93.1605 37.7544 93.3605 38.0844 94.2605C38.2844 94.8105 38.9844 94.4805 39.2644 94.2505Z" fill="black"/>
<path d="M49.2644 80.1607C50.5844 83.1607 52.9644 85.7207 53.8944 88.9007C53.9544 88.4907 54.0144 88.0907 54.0644 87.6807C52.7144 89.9007 50.2644 91.8807 48.3444 93.5907C47.0544 94.7407 48.5044 96.0907 49.7844 95.0307C51.3944 93.7107 52.9544 92.3307 54.3244 90.7707C54.9544 90.0507 56.2944 88.8607 56.2844 87.8007C56.2744 86.4507 54.6644 85.3407 53.9344 84.3807C52.6744 82.7107 51.7344 80.8307 50.4644 79.1707C50.0144 78.5707 49.0044 79.5907 49.2644 80.1607Z" fill="black"/>
<path d="M106.194 127.251C109.984 126.961 113.774 126.681 117.564 126.391C118.114 126.351 118.654 126.311 119.204 126.271C118.824 125.891 118.454 125.521 118.084 125.151C117.304 128.701 116.514 132.251 115.734 135.801C115.584 136.491 116.204 137.011 116.854 136.921C117.624 136.821 118.194 136.151 118.354 135.421C119.134 131.871 119.924 128.321 120.704 124.771C120.864 124.051 120.224 123.601 119.584 123.651C115.794 123.941 112.004 124.221 108.214 124.511C107.664 124.551 107.124 124.591 106.574 124.631C105.124 124.741 104.334 127.391 106.194 127.251Z" fill="black"/>
<path d="M116.734 125.871C113.714 129.361 110.184 132.241 105.984 134.191C101.174 136.421 95.8642 137.061 90.6742 137.851C80.4242 139.391 69.6442 138.551 60.1842 134.021C55.2342 131.651 50.7542 128.321 47.1842 124.151C46.2642 123.081 44.2242 125.081 45.1642 126.171C51.9742 134.081 62.1242 138.821 72.3542 140.331C77.8242 141.141 83.4142 141.041 88.9142 140.511C94.4142 139.971 100.094 139.291 105.174 137.001C110.124 134.771 114.454 131.201 117.914 127.041C118.764 126.011 117.644 124.821 116.734 125.871Z" fill="black"/>
</svg>

<svg fill="none" height="167" viewBox="0 0 167 167" width="167" xmlns="http://www.w3.org/2000/svg"><circle cx="83.5" cy="83.5" fill="#3bd4ae" r="83.5"/><path d="m9.00434 85.5806c-.61-42 65.35996-42 64.73996 0 .61 42.0004-65.35996 42.0004-64.73996 0z" fill="#121328"/><path d="m91.8242 85.5806c.73-42.55 64.0198-42.54 64.7398 0-.72 42.5504-64.0198 42.5504-64.7398 0z" fill="#121328"/><path d="m149.964 40.8406c-.89 3.08-1.78 6.16-2.66 9.24.58-.39 1.16-.78 1.74-1.17-3.45-.47-6.89-.95-10.34-1.42-1.4-.19-2.75 2.4-1.03 2.63 3.45.47 6.89.95 10.34 1.42.69.1 1.55-.5 1.74-1.17.89-3.08 1.78-6.16 2.66-9.24.18-.62.06-1.37-.71-1.47-.69-.08-1.54.51-1.74 1.18z" fill="#000"/><path d="m15.3343 127.151c1.05-3.11 2.1-6.21 3.15-9.32.15-.45.3-.89.45-1.34-.68.36-1.36.72-2.03 1.08 2.82 1.78 5.64 3.55 8.46 5.33.62.39 1.53-.24 1.86-.75.39-.59.39-1.32-.24-1.72-2.82-1.78-5.64-3.55-8.46-5.33-.73-.46-1.82.44-2.03 1.08-1.05 3.11-2.1 6.21-3.15 9.32-.15.45-.3.89-.45 1.34-.21.62-.04 1.37.71 1.47.71.1 1.5-.5 1.73-1.16z" fill="#000"/><path d="m18.6843 50.3806c4.46-8.48 9.57-16.84 16.54-23.5 3.41-3.26 7.4-6.09 11.62-8.2 4.86-2.43 10.11-3.75 15.43-4.72 5.97-1.09 11.97-2.26 18.03-2.63 5.61-.34 11.27.01 16.82.95 10.7597 1.82 21.1297 5.84 29.8997 12.4 8.67 6.48 16.6 15.53 20.26 25.85.51 1.44 3.1-.27 2.47-1.62-2.2-4.69-4.57-9.17-7.7-13.31-3.06-4.06-6.63-7.74-10.58-10.95-8.56-6.93-18.8-11.65-29.54-14.01-11.8397-2.60999-23.9197-1.74999-35.7897.11-5.85.91-11.77 2.05-17.2 4.47-4.45 1.99-8.56 4.65-12.22 7.87-8.35 7.34-14.86 16.69-18.71 27.12-.18.46.47.54.67.17z" fill="#000"/><path d="m18.0044 118.55c3.32 9.36 8.85 17.95 16.02 24.85 3.6 3.46 7.47 6.49 11.91 8.81 4.96 2.59 10.31 3.98 15.79 4.98 11.89 2.17 24.13 3.38 36.13 1.39 10.9596-1.81 21.6396-6.17 30.5996-12.76 4.64-3.4 8.8-7.39 12.4-11.87 3.69-4.59 6.46-9.63 8.89-14.96.79-1.74-1.9-1.81-2.44-.3-3.34 9.19-10.06 17.35-17.55 23.49-8.25 6.76-18.13 11.22-28.54 13.43-5.4996 1.17-11.1196 1.78-16.7396 1.73-5.98-.05-11.89-1.02-17.76-2.09-5.59-1.02-11.2-1.96-16.49-4.14-4.44-1.83-8.52-4.41-12.25-7.42-8.37-6.74-14.14-16.32-19.24-25.62-.23-.44-.87.09-.73.48z" fill="#000"/><path d="m19.3345 85.5808c.49-28.96 43.57-28.96 44.06 0-.49 28.9602-43.57 28.9602-44.06 0z" fill="#fff"/><path d="m102.164 85.5808c.49-28.96 43.57-28.96 44.06 0-.49 28.9602-43.57 28.9602-44.06 0z" fill="#fff"/><g fill="#000"><path d="m132.844 77.0005c-.13-1.42-2.69-2.12-3.82-2.51-1.49-.52-3.26-1.1-4.85-.76-2.99.64-4.29 3.85-4.75 6.54-.63 3.67-1.05 7.68-.7 11.39.3 3.21 1.93 6.14 4.94 7.52 3.3 1.5095 7.45.45 9.81-2.26 1.17-1.35-.23-2.83-1.54-1.54-2.29 2.25-5.83 2.51-8.36.46-2.93-2.36-2.7-6.39-2.52-9.8.1-1.89.3-3.77.66-5.64.24-1.25.58-2.7 1.45-3.68 1.13-1.27 3.22-.65 4.64-.3.89.22 1.74.52 2.6.83.75.27 1.34.53 2.11.26.19-.07.35-.3.33-.51z"/><path d="m115.584 91.1905c4.33-.13 8.66-.02 12.98.3.74.06 1.46-.47 1.72-1.16.22-.58.04-1.4001-.7-1.4601-4.54-.34-9.08-.4299-13.63-.2899-1.45.04-2.23 2.66-.37 2.61z"/><path d="m115.584 84.5606c4.33-.13 8.66-.02 12.98.3.74.06 1.46-.47 1.72-1.16.22-.58.04-1.4-.7-1.46-4.54-.34-9.08-.43-13.63-.29-1.45.05-2.23 2.67-.37 2.61z"/><path d="m33.2744 78.5405c-.91 1.15-1.71 2.36-2.58 3.54-.99 1.35-2.45 2.57-3.32 3.95-.39.62-.66.88-.44 1.67.38 1.31 2.96 3.26 3.87 4.34 1.05 1.24 1.82 3.16 3.61 2.96.34-.04.76-.56.46-.87-1-1.02-1.73-2.4-2.62-3.53-.74-.94-3.49-3.3-3.34-4.09.21-1.04 2.53-2.74 3.24-3.59 1.02-1.24 1.87-2.53 2.57-3.97.52-1.09-.96-1.02-1.45-.41z"/><path d="m39.2644 94.2505c2.25-1.88 2.74-4.51 4.17-6.92 1.56-2.63 2.33-5.4 3.26-8.32.28-.89-.91-.84-1.16-.14-.55 1.55-.99 3.19-1.67 4.69-.8 1.77-2.33 3.03-3.24 4.74-.73 1.37-1.59 2.7-2.31 4.05-.43.81-.56 1.01-.23 1.91.2.55.9.22 1.18-.01z"/><path d="m49.2644 80.1607c1.32 3 3.7 5.56 4.63 8.74.06-.41.12-.81.17-1.22-1.35 2.22-3.8 4.2-5.72 5.91-1.29 1.15.16 2.5 1.44 1.44 1.61-1.32 3.17-2.7 4.54-4.26.63-.72 1.97-1.91 1.96-2.97-.01-1.35-1.62-2.46-2.35-3.42-1.26-1.67-2.2-3.55-3.47-5.21-.45-.6-1.46.42-1.2.99z"/><path d="m106.194 127.251c3.79-.29 7.58-.57 11.37-.86.55-.04 1.09-.08 1.64-.12-.38-.38-.75-.75-1.12-1.12-.78 3.55-1.57 7.1-2.35 10.65-.15.69.47 1.21 1.12 1.12.77-.1 1.34-.77 1.5-1.5.78-3.55 1.57-7.1 2.35-10.65.16-.72-.48-1.17-1.12-1.12-3.79.29-7.58.57-11.37.86-.55.04-1.09.08-1.64.12-1.45.11-2.24 2.76-.38 2.62z"/><path d="m116.734 125.871c-3.02 3.49-6.55 6.37-10.75 8.32-4.81 2.23-10.1198 2.87-15.3098 3.66-10.25 1.54-21.03.7-30.49-3.83-4.95-2.37-9.43-5.7-13-9.87-.92-1.07-2.96.93-2.02 2.02 6.81 7.91 16.96 12.65 27.19 14.16 5.47.81 11.06.71 16.56.18 5.5-.54 11.1798-1.22 16.2598-3.51 4.95-2.23 9.28-5.8 12.74-9.96.85-1.03-.27-2.22-1.18-1.17z"/></g></svg>
